assets/img/contactameImg/gmail.svg

<svg width="57" height="57" viewBox="0 0 57 57" fill="none" xmlns="http://www.w3.org/2000/svg">
<g clip-path="url(#clip0_1387_6620)">
<path d="M53.5577 25.9632C53.1726 25.9233 52.7858 25.9035 52.3985 25.9039C51.1326 25.9205 49.8664 25.9355 48.5843 25.9505C44.635 25.9967 40.5512 26.0447 36.5347 26.1438C35.0253 26.2168 33.5233 26.4018 32.0411 26.6977C30.9076 26.8969 30.266 27.67 30.3676 28.7157C30.4577 29.6459 31.1345 30.2469 32.1781 30.3236C33.4904 30.4205 34.8434 30.4057 36.0084 30.3837C38.5702 30.3353 41.1317 30.2822 43.6932 30.2244L44.1851 30.2137C46.4466 30.1645 48.7081 30.1172 50.9696 30.0719C51.383 30.0632 51.7979 30.0897 52.3233 30.1227L52.3964 30.1272L52.8069 30.1521C52.4588 38.3799 49.2957 44.2323 43.1445 48.0389C36.5547 52.1167 29.379 53.5932 21.8169 52.4274C16.8114 51.6554 12.8034 49.3015 9.90397 45.4305C5.9788 40.1911 3.90461 34.5035 3.73862 28.5255C3.46558 18.7124 8.13327 11.1038 16.8808 7.10118C20.2599 5.55563 23.1262 4.681 25.9018 4.34871C33.6481 3.42111 39.9162 5.2286 45.0603 9.87726C45.1143 9.92585 45.1672 9.97638 45.2309 10.0372C45.4026 10.2121 45.5916 10.369 45.7948 10.5056C46.6383 11.0388 47.5081 10.9726 48.1814 10.3235C48.9059 9.62622 48.9903 8.6748 48.3964 7.90148C47.8644 7.22604 47.2426 6.62686 46.5482 6.12064C42.2227 2.86558 37.041 0.949271 31.6414 0.607832C23.9477 0.0872721 16.7198 2.2224 10.1551 6.95691C4.93368 10.7231 1.70402 16.0185 0.558146 22.6967C-0.57685 29.3099 0.521379 35.9695 3.82151 42.4906C5.48778 45.7824 7.34443 48.3645 9.49781 50.3844C13.6701 54.2992 18.913 56.276 25.5254 56.4274C25.7824 56.4331 26.0382 56.4361 26.2951 56.4361C31.0864 56.4361 35.8714 55.4161 40.9226 53.3186C46.0111 51.205 49.9612 48.0409 52.6629 43.9117C55.3016 39.8795 56.6877 35.0276 56.7841 29.4905C56.8287 26.9431 56.1351 26.1843 53.5577 25.9632Z" fill="black"/>
</g>
<defs>
<clipPath id="clip0_1387_6620">
<rect width="57" height="56" fill="white" transform="translate(0 0.5)"/>
</clipPath>
</defs>
</svg>

<svg xmlns="http://www.w3.org/2000/svg" width="57" height="57" fill="none"><g clip-path="url(#a)"><path fill="#000" d="M53.558 25.963q-.578-.06-1.16-.06c-1.265.018-2.532.033-3.814.048-3.949.046-8.033.094-12.05.193-1.509.073-3.01.258-4.493.554-1.133.199-1.775.972-1.673 2.018.09.93.767 1.53 1.81 1.608 1.312.096 2.665.082 3.83.06q3.843-.073 7.685-.16l.492-.01q3.392-.075 6.785-.142c.413-.009.828.018 1.353.05l.073.005.41.025c-.347 8.228-3.51 14.08-9.661 17.887-6.59 4.078-13.766 5.554-21.328 4.388-5.006-.772-9.014-3.126-11.913-6.996-3.925-5.24-6-10.927-6.165-16.905C3.466 18.712 8.133 11.104 16.88 7.1c3.379-1.545 6.245-2.42 9.02-2.752 7.747-.928 14.015.88 19.16 5.528l.17.16q.258.263.564.469c.843.533 1.713.467 2.386-.183.725-.697.81-1.648.215-2.422a9.4 9.4 0 0 0-1.848-1.78A27.7 27.7 0 0 0 31.641.608C23.948.088 16.72 2.222 10.155 6.957c-5.221 3.766-8.451 9.061-9.597 15.74C-.577 29.31.521 35.969 3.822 42.49c1.666 3.291 3.522 5.874 5.676 7.893 4.172 3.915 9.415 5.892 16.027 6.043q.385.01.77.01c4.791 0 9.576-1.02 14.628-3.118 5.088-2.114 9.038-5.278 11.74-9.407 2.639-4.032 4.025-8.884 4.121-14.421.045-2.548-.649-3.307-3.226-3.528"/></g><defs><clipPath id="a"><path fill="#fff" d="M0 .5h57v56H0z"/></clipPath></defs></svg>
